components/icon/svg/24/av_fast-forward-empty.svg

<?xml version="1.0" encoding="UTF-8"?>
<svg width="24px" height="24px" viewBox="0 0 24 24" version="1.1" xmlns="http://www.w3.org/2000/svg" xmlns:xlink="http://www.w3.org/1999/xlink">
    <!-- Generator: Sketch 64 (93537) - https://sketch.com -->
    <title>ic-db_av_fast-forward-empty_24</title>
    <desc>Created with Sketch.</desc>
    <g id="Symbols:Icon" stroke="none" stroke-width="1" fill="none" fill-rule="evenodd">
        <g id="24dp-Icon/AV/Fast-Forward-Empty" fill="#282D37">
            <path d="M2,13.0938 C2,8.9375 5.2187,5.4688 9.375,5.125 L8.9687,4.7188 C8.75,4.5313 8.625,4.25 8.625,3.9688 C8.625,3.4375 9.0937,3 9.6562,3 C9.875,3 10.125,3.0625 10.3125,3.2188 L12.5937,5.5313 C12.7812,5.7188 12.875,5.9375 12.875,6.2188 C12.875,6.5 12.7812,6.75 12.5937,6.9375 L10.4062,9.1563 C10.2187,9.3438 9.9687,9.4375 9.6562,9.4375 C9.125,9.4375 8.6875,8.9688 8.6875,8.4375 C8.6875,8.1875 8.7812,7.9375 9,7.75 L9.5625,7.125 C6.4375,7.3438 4,9.9688 4,13.125 C4,14.6563 4.625,16.1875 5.7812,17.375 C5.9687,17.5625 6.0625,17.8125 6.0625,18.0625 C6.0625,18.625 5.5937,19.0625 5.0625,19.0625 C4.8125,19.0625 4.5625,18.9688 4.375,18.7813 C2.8125,17.2188 2,15.1875 2,13.0938 Z" id="🎨-Color"></path>
        </g>
    </g>
</svg>

<svg width="24" height="24" xmlns="http://www.w3.org/2000/svg"><path d="M2 13.094c0-4.156 3.219-7.625 7.375-7.969l-.406-.406a.998.998 0 01-.344-.75c0-.531.469-.969 1.031-.969.219 0 .469.063.656.219l2.282 2.312a.919.919 0 01.281.688.99.99 0 01-.281.718l-2.188 2.22c-.187.187-.437.28-.75.28-.531 0-.969-.468-.969-1 0-.25.094-.5.313-.687l.563-.625C6.437 7.344 4 9.969 4 13.125c0 1.531.625 3.063 1.781 4.25a.97.97 0 01.282.688c0 .562-.47 1-1 1a.97.97 0 01-.688-.282A7.998 7.998 0 012 13.094z" fill="#282D37" fill-rule="evenodd"/></svg>
